<?xml version="1.0" encoding="UTF-8"?>
<map version="1.10" tiledversion="1.11.0" orientation="orthogonal" renderorder="right-down" width="20" height="15" tilewidth="32" tileheight="32" infinite="0" nextlayerid="5" nextobjectid="6">
 <tileset firstgid="1" name="valley_tileset" tilewidth="32" tileheight="32" tilecount="2" columns="2">
  <image source="valley_tileset.png" width="64" height="32"/>
 </tileset>
 <layer id="1" name="ground" width="20" height="15">
  <data encoding="csv">
1,1,1,1,1,1,1,1,1,1,1,1,1,1,1,1,1,1,1,1,
1,1,1,1,1,1,1,1,1,1,1,1,1,1,1,1,1,1,1,1,
1,1,1,1,1,1,1,1,1,1,1,1,1,1,1,1,1,1,1,1,
1,1,1,1,1,1,1,1,1,1,1,1,1,1,1,1,1,1,1,1,
1,1,1,1,1,1,1,1,1,1,1,1,1,1,1,1,1,1,1,1,
1,1,1,1,1,1,1,1,1,1,1,1,1,1,1,1,1,1,1,1,
1,1,1,1,1,1,1,1,1,1,1,1,1,1,1,1,1,1,1,1,
1,1,1,1,1,1,1,1,1,1,1,1,1,1,1,1,1,1,1,1,
1,1,1,1,1,1,1,1,1,1,1,1,1,1,1,1,1,1,1,1,
1,1,1,1,1,1,1,1,1,1,1,1,1,1,1,1,1,1,1,1,
1,1,1,1,1,1,1,1,1,1,1,1,1,1,1,1,1,1,1,1,
1,1,1,1,1,1,1,1,1,1,1,1,1,1,1,1,1,1,1,1,
1,1,1,1,1,1,1,1,1,1,1,1,1,1,1,1,1,1,1,1,
1,1,1,1,1,1,1,1,1,1,1,1,1,1,1,1,1,1,1,1,
1,1,1,1,1,1,1,1,1,1,1,1,1,1,1,1,1,1,1,1
</data>
 </layer>
 <layer id="2" name="terrain" width="20" height="15">
  <data encoding="csv">
0,0,0,0,0,0,0,0,0,0,0,0,0,0,0,0,0,0,0,0,
0,0,0,0,0,0,0,0,0,0,0,0,0,0,0,0,0,0,0,0,
0,0,0,0,0,0,0,0,0,0,0,0,0,0,0,0,0,0,0,0,
2,2,2,2,2,2,2,2,0,0,0,0,2,2,2,2,2,2,2,2,
2,2,2,2,2,2,2,2,0,0,0,0,2,2,2,2,2,2,2,2,
2,2,2,2,2,2,2,2,0,0,0,0,2,2,2,2,2,2,2,2,
2,2,2,2,2,2,2,2,0,0,0,0,2,2,2,2,2,2,2,2,
2,2,2,2,2,2,2,2,0,0,0,0,2,2,2,2,2,2,2,2,
2,2,2,2,2,2,2,2,0,0,0,0,2,2,2,2,2,2,2,2,
2,2,2,2,2,2,2,2,0,0,0,0,2,2,2,2,2,2,2,2,
2,2,2,2,2,2,2,2,0,0,0,0,2,2,2,2,2,2,2,2,
2,2,2,2,2,2,2,2,0,0,0,0,2,2,2,2,2,2,2,2,
0,0,0,0,0,0,0,0,0,0,0,0,0,0,0,0,0,0,0,0,
0,0,0,0,0,0,0,0,0,0,0,0,0,0,0,0,0,0,0,0,
0,0,0,0,0,0,0,0,0,0,0,0,0,0,0,0,0,0,0,0
</data>
 </layer>
 <objectgroup id="3" name="collision">
  <object id="1" name="left_mountain" x="0" y="0">
   <polygon points="0,100 230,70 270,180 250,340 150,410 0,380"/>
  </object>
  <object id="2" name="right_mountain" x="0" y="0">
   <polygon points="640,100 410,70 370,180 390,340 490,410 640,380"/>
  </object>
 </objectgroup>
 <objectgroup id="4" name="interactables">
  <object id="3" name="runestone" x="100" y="30">
   <point/>
  </object>
  <object id="4" name="blacksmith" x="540" y="30">
   <point/>
  </object>
  <object id="5" name="merchant" x="760" y="30">
   <point/>
  </object>
 </objectgroup>
</map>
